X:1
T:Polka Russe
C:PLLP
%%score 1 2
L:1/4
M:2/4
Q:120
K:C
%%stretchlast 1.0
V:1 treble transpose=-2 nm="Clar." snm="Clar."
%%MIDI program 71
V:2 treble nm="Vln." snm="Vln."
%%MIDI program 40
V:1
[K:D]|:"^A" B/>c/ d/d/ | c/B/ !breath!c | c/>d/ e/e/ | d/c/ B :|
:"^B" f d | B/B/ c | c/>d/ e/e/ |1 d/c/ d/B/ :|2  d/c/ B |]
V:2
[K:C]|: A/>B/ c/c/ | B/A/ !breath!B | B/>c/ d/d/ | c/B/ A :|
: e c | A/A/ B | B/>c/ d/d/ |1 c/B/ c/A/ :|2  c/B/ A |]
